X: 40153
T: Tim Henry's Favourite
R: reel
M: 4/4
K: Gmajor
G2 BG dG BG|FA DF FA DF|G2 BG dG Bd|eg fa ge dB|
G2 BG dG BG|FA AA FA DA|G2 BG dG Bd|eg fa fg gf|
Gd Bd ed Bd|g2 bg ag ef|Gd Bd ed Bd|eg fa g2 gf|
ga bg ef ge|Gd ed BA Bd|e2 ee ed Bd|eg fa ge dB|

